X:76
T: Der heimkehrende Braeutigam
N: Q0102D
O: Mitteleuropa, Deutschland / Frankreich, Lothringen
R: Ballade, Ehe - Geloebnis, Betrug
M: 6/8
L: 1/16
K: G
G2 | B,2D2G2B,2D2B2 | B3AB2A4
AA | D2F2cAB2B2A2 | G6z4
D2 | c2c2A2D2F2A2 | G2B2d2d2c2
BB | A2A2ced2d2c2 | B6z4

